X:139
T:Woods Hornpipe. Le4.139
M:C|
L:1/8
N:No metre sign on MS
Q:1/4=120
B:L.Leadley MS#4 c1850
Z:Village Music Project, 2016 Ruairidh Greig
K:A
(3EFG|A2A2A2cd|ecea ecBA|fedc dcBA|GABc B2(3EFG|
A2A2A2 cd|ecea ecBA|fedc dcBA|E2A2A2:|
(cd)|ecea ecea|fdfa fdfa|fedc dcBA|GABcB2cd|
ecea ecea|fdfa fdfa|gfed cBAG|A2A2A2:|

